X: 352
M: 6/8
L: 1/8
K: Dm
d2e |\
fgf efd | e2A dcB | AGF EAG | F2D d2e |\
fgf efd | e2A dcB | AGF ED^C | D3 :|
|: "2.F."A2B |\
cdc cBA | B2G G2A | BcB BAG | A2F F2G |\
c2c cdc | B2B B2^c | d2d ded | ^c2c d2e |\
fgf efd | e2A dcB | AGF !+!E2D | D3 :|

